svg/l/MA.svg

<svg width="32" height="24" viewBox="0 0 32 24" fill="none" xmlns="http://www.w3.org/2000/svg">
<g clip-path="url(#clip0_270_67430)">
<rect width="32" height="24" fill="white"/>
<path fill-rule="evenodd" clip-rule="evenodd" d="M0 0H32V22C32 23.1046 31.1046 24 30 24H2C0.895431 24 0 23.1046 0 22V0Z" fill="#C51918"/>
<path fill-rule="evenodd" clip-rule="evenodd" d="M0 0H32V24H0V0Z" fill="#E31D1C"/>
<path fill-rule="evenodd" clip-rule="evenodd" d="M22.4819 19.6262L16.1658 2.70059H15.8918L9.79517 19.6262L16.1265 15.821L22.4819 19.6262ZM15.4666 8.22201L16.1437 5.58366L16.8464 8.29758L18.865 13.9541L20.0503 16.6926L17.4915 14.8899L16.1251 14.0718L14.7807 14.8798L12.2813 16.6926L13.4368 13.898L15.4666 8.22201Z" fill="#579D20"/>
<path fill-rule="evenodd" clip-rule="evenodd" d="M12.6625 13.4731L16.1585 15.7971L19.4206 13.4731L25.6164 8.23643H6.38525L12.6625 13.4731ZM12.7351 11.4741L10.3575 10.0191H13.2582H19.0219H21.5807L19.5397 11.3119L16.1433 13.8888L12.7351 11.4741Z" fill="#579D20"/>
</g>
<defs>
<clipPath id="clip0_270_67430">
<rect width="32" height="24" fill="white"/>
</clipPath>
</defs>
</svg>

<svg width="32" height="24" fill="none" xmlns="http://www.w3.org/2000/svg">
  <mask id="a" maskUnits="userSpaceOnUse" x="0" y="0" width="32" height="24">
    <path fill="#fff" d="M0 0h32v24H0z"/>
  </mask>
  <g mask="url(#a)" fill-rule="evenodd" clip-rule="evenodd">
    <path d="M0 0h32v22a2 2 0 01-2 2H2a2 2 0 01-2-2V0z" fill="#C51918"/>
    <path d="M0 0h32v24H0V0z" fill="#E31D1C"/>
    <path d="M22.482 19.626L16.166 2.701h-.274L9.795 19.626l6.332-3.805 6.355 3.805zM15.467 8.222l.677-2.638.702 2.714 2.019 5.656 1.185 2.739-2.559-1.803-1.366-.818-1.344.808-2.5 1.813 1.156-2.795 2.03-5.676z" fill="#579D20"/>
    <path d="M12.662 13.473l3.496 2.324 3.263-2.324 6.195-5.237H6.386l6.276 5.237zm.073-1.999l-2.377-1.455H21.58l-2.041 1.293-3.397 2.577-3.408-2.415z" fill="#579D20"/>
  </g>
</svg>
